X: 16513
T: Hale's Rag
R: barndance
M: 4/4
K: Cmajor
|:ef|geag egeg|agag eg- g2|cAdc AcAc|dcdc Ac- c2|
G2 BG AB- B2|G2 BG AB- B2|cBcB cdef|g3 g g2 ef|
geag egeg|agag eg- g2|cAdc AcAc|dcdc Ac- c2|
G2 BG AB- B2|G2 BG AB- B2|cBcB ge- e2|c3 c c2:|
|:AB|cAdc AcAc|dcdc Ac- c2|C2 EC DCA,C|ECDC A,C- C2|G,A, B,2 B,3 A,|
G,A, B,2 B,2 (3G,A,B,|1 C2 C2 DE- E2|G3 G G2:|2 G2 (3DEF G2 AB|c3 c c4||
c'2 b2 agcd|eg-ge agcd|e2 e2- ec d2|c3 c c4|
c'2 b2 agcd|eg-ge agag|b2 bb- ba b2|d'8|
c'2 b2 agcd|eg-ge agcd|e2 e2- ec d2|c4 c2 B2|
A,G,A,B, CB,CD|EC-CA,- A,2 cd|ee-ee- ec d2|c8||

